X: 231a
T: Maids Of Galway
R:reel
M:4/4
L:1/8
K:Bmin
|:"Bm"B~F3 BFAF|"A"E2DE "D"F~A3|"Bm"B~F3 BFAF|"A"E2DE "D"FDFA|
"Bm"B~F3 BFAF|"A"E2DE "D"FDFA|"Bm"~B3c "D"dBAF|1"A" E2DE "D"FDFA:|2 "A"E2DE "D"FABc||
|:"Bm"d2cd ~B3c|d2cd "Em"Bee2|"Bm"d2cd B2AF|"A"E2DE "D"FABc|
"Bm"~d3c B2 AB|d2cd "Em"Bee2|"D"fd"A"ec "Bm"B2AF|1"A"EFDE "D"FABc:|2"A" E2DE "D"FDFA||


